X:204 
T:Tenpenny Bit  
B:CRE3.032 (Piosa Deich bPingine)
F:file ID: cre.3/204tenp_b
R:jig
Q:160
M:6/8
L:1/8
K:Am
d| edB G2A|Bdd Bdd|edB G2A|B3 AGE|
DB,D G2A|Bdd Bdd|edB GBB|BAG AB:|
d|e2^f g3|eag ^fed|e2^f g3|e^fg a3|
bag ag^f|g^fe def|g3 edc|BAG AB:|

%%%

